X:177
T:Sno
R:reel
C:Bruce Osborne - Nov. 1997
Z:abc by bosborne@kos.net
M:2/4
L:1/8
K:D
(3A,/B,/C/|DD/E/ F/D/F/G/|A/B/A/F/ AF/G/|A/B/A/F/ d/B/A/d/|A/F/D/F/ EF/E/|\
DD/E/ F/D/F/G/|A/B/A/F/ AF/G/|A/B/A/F/ d/B/A/F/|E/D/E/F/ D:|
|:d/e/|f/a/f/e/ d/c/d/e/|f/g/f/e/ dc/d/|e/A/f/A/ e/A/f/A/|e/d/c/B/ Ad/e/|\
f/a/f/e/ d/c/d/e/|f/g/f/e/ dc/d/|e/A/f/A/ g/e/c/e/|d/c/d/e/ d:|
